!!!COM: Bach, Johann Sebastian
!!!CDT: 1685/3//-1750/7/28/
!!!OTL@@DE: Herr Christ, der ein'ge Gott's Sohn
!!!AGN: 4-Part Chorale
!!!SCT: BH 303
!!!SCT: BWV 96
**harm	**root	**kern	**kern	**kern	**kern
!	!	!bass	!tenor	!alto	!soprno
*	*Iorgan	*Iorgan	*Iorgan	*Iorgan	*Iorgan
*M4/4	*M4/4	*M4/4	*M4/4	*M4/4	*M4/4
*met(c)	*met(c)	*met(c)	*met(c)	*met(c)	*met(c)
*MM60	*MM60	*MM60	*MM60	*MM60	*MM60
*k[b-e-a-d-g-c-]	*k[b-e-a-d-g-c-]	*k[b-e-a-d-g-c-]	*k[b-e-a-d-g-c-]	*k[b-e-a-d-g-c-]	*k[b-e-a-d-g-c-]
*G-:	*G-:	*G-:	*G-:	*G-:	*G-:
*>[A,A,B]	*>[A,A,B]	*>[A,A,B]	*>[A,A,B]	*>[A,A,B]	*>[A,A,B]
*>A	*>A	*>A	*>A	*>A	*>A
I	4FF	4G-	4B-	4d-	4g-
=1	=1	=1	=1	=1	=1
IV	4BB-	4C-	4c-	8e-	8g-
.	.	.	.	8f	8a-
I	4FF	4G-	4d-	4g-	4b-
V	4CC	4D-	8d-	4f	4a-
.	.	.	8c-	.	.
vi	4DD	4E-	4B-	4e-	4g-
=2	=2	=2	=2	=2	=2
vii7b	4EE	4AA-	4c-	4e-	2f
V/vi	4AA	4BB-	8B-	4d	.
.	.	.	8A-	.	.
vi;	4DD;	4E-;	4G-;	4B-;	4e-;
V/ii	4DD	4E-	4e-	4g	4b-
=3	=3	=3	=3	=3	=3
ii	4GG	8A-	4e-	8a-	4cc-
.	.	8B-	.	8g-	.
V7d	4CC	4c-	4d-	4f	4a-
I	4FF	8B-	4d-	4g-	4b-
.	.	8G-	.	.	.
V	4CC	4D-	8d-	4f	4a-
.	.	.	8c-	.	.
=4	=4	=4	=4	=4	=4
I;	2.FF;	2.GG-;	2.B-;	2.d-;	2.g-;
=:|!	=:|!	=:|!	=:|!	=:|!	=:|!
*>B	*>B	*>B	*>B	*>B	*>B
I	4FF	8G-	4B-	4d-	8g-
.	.	8F	.	.	8a-
=5	=5	=5	=5	=5	=5
vi	4DD	4E-	4e-	4g-	4b-
V7d/ii	4DD	4D-	4e-	4g	4b-
iib	4GG	8C-	4e-	4a-	4cc-
.	.	8BB-	.	.	.
ii	4GG	4AA-	4e-	4a-	4cc-
!!linebreak: 2
=6	=6	=6	=6	=6	=6
Ib	2FF	4.BB-	2d-	4a-	2dd-
.	.	.	.	4g-	.
.	.	8C-	.	.	.
V;	4CC;	4D-;	4d-;	4f;	4a-;
Vb	4CC	4F	4d-	4a-	4dd-
=7	=7	=7	=7	=7	=7
I	4FF	4G-	4d-	4g-	4b-
viioD7/ii	4FF#	4G	4d-	4f-	4b-
ii	4GG	4A-	4c-	4e-	4a-
viioD7/iii	4GG#	4A	4c	4e-	4g-
=8	=8	=8	=8	=8	=8
iii	4AA	4B-	8F	4e-	2f
.	.	.	8G-	.	.
V7/vi	4AA	4BB-	4A-	4d	.
IV;	4BB-;	4C-;	4G-;	4e-;	4e-;
viib/ii	4FF#	4BB-	4d-	4g	4b-
=9	=9	=9	=9	=9	=9
ii	4GG	8AA-	4e-	8a-	4cc-
.	.	8BB-	.	8g-	.
V7d	4CC	4C-	4d-	4f	4a-
Ib	4FF	8BB-	4d-	4g-	4b-
.	.	8C-	.	.	.
V	4CC	4D-	8d-	4f	4a-
.	.	.	8c-	.	.
=10	=10	=10	=10	=10	=10
I;	2.FF;	2.GG-;	2.B-;	2.d-;	2.g-;
==	==	==	==	==	==
*-	*-	*-	*-	*-	*-
!!chor2scor: -l 2 -s 0.6 -o %b.pmx
!!!YEC: Copyright 1994, David Huron
!!!YEC: Changes/Additions 2001 by Craig Stuart Sapp
!!!YEN: United States of America
!!!SMA: 371 Bach Chorales, edited by Ludwig Erk, C.F. Peters
!!!PDT: 1850, 1865
!!!ONB: Harmony and Root analysis done manually
